X:1
T:Valletta, 886 D
T:Valletta, 886 D
T:Wilhelm Nelle, 1905
T:Public Domain Courtesy of the Cyber Hymnal™
C:Wilhelm Nelle, 1905
Z:Public Domain
Z:Courtesy of the Cyber Hymnal™
%%score ( 1 2 ) ( 3 4 )
L:1/8
Q:1/4=107
M:4/4
K:D
V:1 treble 
V:2 treble 
V:3 bass 
V:4 bass 
V:1
 [Fd]2 [EA]2 [CF]2 | [B,D]3 [B,D] [=CE]2 [CF]2 | [B,G]2 [B,B]2 [B,G]2 [B,E]2 | %3
 [G,D]2 [G,C]2 [A,D]2 [DF]2 | E2 [CE]2 [EB]2 [Ed]2 | [Ec]2 [EB]2 x4 | [EA]6 [EA]2 | %7
 [Ee]2 [Ec]2 [Dd]2 [DA]2 | [EA]3 [EG] [DF]2 [DF]2 | [Fc]2 [F^A]2 [FB]2 [B,F]2 | %10
 [B,D]3 [B,E] [^A,F]2 [B,F]2 | [B,E]4 [DB]4 | [DA]6 [A,C]2 | [A,D]6 x2 |] x6 |] %15
V:2
 x6 | x8 | x8 | x8 | E2 x6 | x8 | x8 | x8 | x8 | x8 | x8 | x8 | x8 | x8 |] x6 |] %15
V:3
 [D,A,]2 x4 | [C,A,]2 [A,,A,]2 x4 | [B,,F,]3 [B,,F,] [A,,A,]2 [A,,D,]2 | %3
 [G,,D,]2 [G,,D,]2 [G,,D,]2 [G,,G,]2 | [A,,E,]2 [A,,E,]2 [A,,F,]2 [B,,^G,]2 | %5
 [C,A,]2 A,2 [E,^G,]2 [B,,G,]2 | [C,A,]2 [E,D]2 x4 | (D2 C2) [A,C]2 x2 | %8
 [G,C]2 [G,A,]2 [F,A,]2 [F,A,]2 | [C,A,]3 [C,A,] [D,A,]2 [B,,B,]2 | %10
 [^A,,C]2 [E,C]2 [D,B,]2 [B,,D,]2 | [B,,F,]3 [G,,B,,] [F,,C,]2 [B,,D,]2 | [G,,D,]4 (D,2 E,2) | %13
 (E,2 F,2 G,2) [A,,G,]2 |] [D,F,]6 |] %15
V:4
 x6 | x8 | x8 | x8 | x8 | x2 A,2 x4 | x8 | A,,6 CB, | x8 | x8 | x8 | x8 | x4 G,,4 | A,,6 x2 |] %14
 x6 |] %15

